!!!COM: Fux, Johann Joseph
!!!OMD: Gradus ad Parnassum Exercise
!!!YEC: CC0 1.0 Universal (Public Domain). Mark Gotham and FourScoreAndMore.org waive all rights to this document.
**kern	**kern	**kern
*part3	*part2	*part1
*staff3	*staff2	*staff1
*I"3	*I"2	*I"1
*I'Pno	*I'Pno	*I'Pno
!!LO:LB:g=z
*clefF4	*clefGv2	*clefG2
*k[]	*k[]	*k[]
!!LO:TX:omd:t=
*M4/4	*M4/4	*M4/4
=164	=164	=164
!	!	!LO:TX:a:t=Fig. 118; Species&colon; 1; Modal final&colon; c; Cantus firmus&colon; 1
1AA	1G	1c
=165	=165	=165
1C	1c	1e
=166	=166	=166
1BB	1A	1f
=167	=167	=167
1D	1G	1g
=168	=168	=168
1C	1c	1e
=169	=169	=169
1E	1c	1a
=170	=170	=170
1F	1e	1g
=171	=171	=171
1E	1c	1e
=172	=172	=172
1D	1B	1f
=173	=173	=173
1C	1c	1e
=174	=174	=174
1BB	1B	1d
=175	=175	=175
1AA	1c	1c
==	==	==
*-	*-	*-
!!!software: music21 v.9.7.1
!!!software: music21 v.9.7.1
!!!software: MuseScore 3.4.2
!!!RDF**kern: > = above
!!!RDF**kern: < = below
